X:4926
L:1/16
M:2/4
K:C
 G2 | c>de2>f2 g>ef>d | e>cd>B .c2.[CD^F]2 | G>AB>c d>Bc>A | B>GA>^F .G2.[FGB]2 | c>de>f g>ef>d | 
 e>cd>B .c2(B2 | A>)(^cd>)(=c B>)(dG>)(g | e2).[EGc]2.[EGc]2 :: !fermata!A>B | (c>BA>)G A>(ae>)d | 
 c>AB>^G A2=G>A | (B>AG>)^F G>(gd>)c | B>GA>^F G2A>B | (c>BA>)^G A>(ae>)d | c>AB>^G A>Bc>d | 
 (e3/2d2<c2)A/ B>(eE>)(e | c2).[CEA]2.[CEA]2 :|

